static/uploads/plugins/faucet.svg

<svg width="33" height="32" viewBox="0 0 33 32" fill="none" xmlns="http://www.w3.org/2000/svg">
<path d="M16.0815 32C7.25912 32 0.081543 24.8224 0.081543 16C0.081543 7.17758 7.25912 0 16.0815 0C24.904 0 32.0815 7.17758 32.0815 16C32.0815 24.8224 24.904 32 16.0815 32ZM16.0815 1.35488C8.00622 1.35488 1.43643 7.92468 1.43643 16C1.43643 24.0753 8.00622 30.6451 16.0815 30.6451C24.1569 30.6451 30.7275 24.0753 30.7275 16C30.7275 7.92468 24.1569 1.35488 16.0815 1.35488Z" fill="#4A4A4A"/>
<path d="M15.0238 13.0769C14.9313 13.0771 14.841 13.0492 14.7648 12.9967C14.6886 12.9442 14.6303 12.8698 14.5976 12.7833C14.5648 12.6968 14.5592 12.6024 14.5816 12.5127C14.6039 12.4229 14.6531 12.3421 14.7225 12.2811C16.0077 11.1491 16.5763 10.2139 16.6773 10.038C17.0552 9.37972 17.6621 9.03926 18.2995 9.12633C18.419 9.14261 18.5272 9.2057 18.6002 9.30172C18.6732 9.39774 18.705 9.51882 18.6888 9.63833C18.6725 9.75784 18.6094 9.86599 18.5134 9.93899C18.4173 10.012 18.2963 10.0438 18.1768 10.0276C17.8049 9.97793 17.5559 10.3349 17.4662 10.4917C17.353 10.6893 16.7165 11.736 15.3251 12.9637C15.2417 13.0367 15.1346 13.077 15.0238 13.0769Z" fill="#4A4A4A"/>
<path d="M7.36442 20.7891C7.27097 20.789 7.17983 20.7601 7.10336 20.7064C7.02689 20.6527 6.96879 20.5768 6.93694 20.4889C6.90509 20.4011 6.90103 20.3056 6.92532 20.2153C6.94961 20.1251 7.00107 20.0445 7.07272 19.9845C7.6003 19.5677 8.16022 19.1936 8.74717 18.8656C8.8544 18.8174 8.97613 18.8125 9.08688 18.852C9.19764 18.8915 9.28882 18.9723 9.34136 19.0775C9.3939 19.1827 9.40372 19.3041 9.36876 19.4164C9.3338 19.5286 9.25677 19.623 9.1538 19.6798C8.63024 19.9771 8.12936 20.3127 7.65525 20.6838C7.57379 20.7521 7.47076 20.7894 7.36442 20.7891Z" fill="#4A4A4A"/>
<path d="M18.8043 16.4727C18.9846 16.6416 19.1944 16.5685 19.3877 16.3856C20.7061 15.1292 22.1027 13.156 22.5686 12.132C22.6679 11.9135 22.869 11.7916 23.0849 11.8778C23.3383 11.9805 23.3348 12.4168 23.105 12.8905C22.4954 14.1443 21.6508 15.5253 19.9825 17.2529C19.9472 17.2861 19.9192 17.3263 19.9003 17.3709C19.8814 17.4155 19.8721 17.4635 19.8728 17.5119C19.8735 17.5604 19.8844 17.6081 19.9046 17.6521C19.9248 17.6961 19.954 17.7354 19.9903 17.7675C20.1375 17.8999 20.376 17.8912 20.5998 17.6639C21.4662 16.7801 22.0496 16.0966 22.5512 15.3869C22.6792 15.2006 22.8342 15.1257 22.9865 15.1596C23.206 15.2032 23.2408 15.4139 23.1738 15.6673C23.0649 16.0765 21.9138 17.5829 21.4584 18.0941C20.2219 19.4733 18.9846 20.2291 16.6048 21.4665C15.7741 21.9018 15.1524 22.3111 14.7763 22.9467C14.4341 23.5249 14.3313 23.7139 14.2965 23.787C14.2294 23.9229 14.2184 24.0797 14.2658 24.2237C14.3131 24.3677 14.4152 24.4873 14.5499 24.5567C14.6185 24.5896 14.6932 24.6081 14.7693 24.6111C14.8453 24.6142 14.9212 24.6016 14.9923 24.5743C15.0634 24.547 15.1281 24.5055 15.1826 24.4523C15.2371 24.3992 15.2801 24.3354 15.3092 24.2651C15.3092 24.2581 15.2917 24.2746 15.7393 23.5179C16.0753 22.9773 16.5628 22.5474 17.1412 22.2815C19.5218 21.1965 20.4971 20.338 21.8781 18.957C22.5085 18.3265 23.3793 16.976 23.6196 16.5763C24.2848 15.4566 23.9357 14.4961 23.3348 14.3333C23.3232 14.3305 23.3125 14.3249 23.3034 14.3172C23.2943 14.3095 23.2871 14.2997 23.2825 14.2887C23.2778 14.2777 23.2758 14.2658 23.2766 14.2539C23.2774 14.242 23.2809 14.2304 23.287 14.2201C23.7519 13.4234 23.9635 12.873 24.0515 12.4464C24.1699 11.8665 24.0053 11.1629 23.2095 10.9914C23.1995 10.9889 23.1901 10.9845 23.1819 10.9784C23.1736 10.9723 23.1667 10.9646 23.1615 10.9557C23.1563 10.9468 23.1529 10.937 23.1516 10.9269C23.1503 10.9167 23.151 10.9063 23.1537 10.8964C23.2034 10.7127 23.253 10.4811 23.287 10.3287C23.4541 9.57552 22.9778 8.89372 22.4058 8.77095C22.2213 8.72965 22.0302 8.72825 21.8452 8.76685C21.6602 8.80544 21.4855 8.88314 21.333 8.99473C21.3117 9.00903 21.286 9.01514 21.2605 9.01194C21.2351 9.00874 21.2116 8.99644 21.1945 8.97731C21.1195 8.89331 21.0282 8.82544 20.9261 8.77784C20.824 8.73024 20.7133 8.7039 20.6007 8.70042C20.1018 8.69171 19.6115 8.84496 19.2528 9.61122C18.9959 10.1589 18.6136 10.8947 17.4939 12.1364C16.4551 13.2884 15.0088 14.4117 14.1162 14.9977C13.9595 15.1004 13.7401 15.076 13.7679 14.8662C13.8097 14.5318 14.1676 12.2896 14.2286 11.6287C14.3278 10.5551 13.7505 10.0614 13.1027 9.97432C12.5698 9.90205 11.7609 10.0553 11.3177 11.2691C11.0564 11.9805 10.5166 13.1491 10.0577 15.0316C9.73463 16.356 9.68152 17.8999 9.9767 19.6736C9.99544 19.7806 9.9747 19.8907 9.91836 19.9836C9.56484 20.5652 9.04761 21.3306 8.75852 21.9985C8.70087 22.128 8.69326 22.2742 8.73716 22.409C8.78107 22.5438 8.87337 22.6575 8.99624 22.7282C9.06329 22.7648 9.13711 22.7873 9.21319 22.7944C9.28926 22.8015 9.36598 22.7929 9.43863 22.7693C9.51128 22.7456 9.57834 22.7074 9.63567 22.6569C9.69301 22.6064 9.73943 22.5447 9.77207 22.4757C9.94622 22.1134 10.2945 21.4308 10.4347 21.1513C10.675 20.6593 10.8344 20.3345 10.8997 20.1299C10.9589 19.9435 10.9937 19.7276 10.8866 19.2365C10.7055 18.4101 10.642 16.8567 10.9789 15.4879C11.3464 14.0704 11.7941 12.675 12.3199 11.3083C12.4557 10.9731 12.6482 10.8686 12.8423 10.886C13.0365 10.9034 13.4022 10.9966 13.2969 11.6792C13.1088 12.9061 12.8423 14.4656 12.7544 14.9881C12.7117 15.245 12.6621 15.8458 13.1366 16.1201C13.5067 16.3343 13.9142 16.215 14.3644 15.9146C15.3779 15.2389 17.1238 13.8622 18.2209 12.6301C19.3721 11.337 19.7387 10.5673 20.0347 9.8707C20.1697 9.55288 20.5162 9.55549 20.639 9.59119C20.7618 9.62689 20.9098 9.79233 20.8053 10.1424C20.5502 10.9922 19.4992 12.9392 17.4738 14.7652C17.2448 14.9724 17.2771 15.2171 17.3937 15.3451C17.5104 15.4731 17.7168 15.5497 17.9527 15.3451C19.7726 13.7934 20.8114 11.9387 21.2781 10.9469C21.4336 10.6166 21.5668 10.2763 21.6769 9.92817C21.7762 9.63995 21.9982 9.53721 22.1532 9.56942C22.3744 9.61644 22.5207 9.84371 22.4502 10.2173C22.3371 10.6952 22.171 11.159 21.9547 11.6C21.3713 12.8382 20.1392 14.4952 18.8104 15.9181C18.7712 15.9526 18.7397 15.9951 18.718 16.0426C18.6962 16.0902 18.6847 16.1417 18.6841 16.194C18.6835 16.2463 18.6939 16.2981 18.7146 16.3461C18.7353 16.3941 18.7659 16.4373 18.8043 16.4727V16.4727Z" fill="#4A4A4A"/>
<path d="M10.5766 10.3062C10.6472 10.2443 10.6193 10.1651 10.5993 10.1015C10.5017 9.78895 9.94359 8.48108 9.79731 8.21812C9.72329 8.08576 9.63012 8.06748 9.52999 8.10579C9.39851 8.15629 9.23568 8.27994 8.98664 8.49589C8.73761 8.71183 8.59655 8.85986 8.5295 8.9835C8.47812 9.07842 8.48422 9.17333 8.60612 9.26302C8.84732 9.44239 10.0716 10.166 10.3694 10.3079C10.4295 10.3358 10.5044 10.3732 10.5749 10.3079L10.5766 10.3062Z" fill="#4A4A4A"/>
<path d="M20.6679 21.8836C20.5747 21.8897 20.5486 21.9707 20.526 22.0317C20.4136 22.3399 20.0619 23.7183 20.0192 24.0161C19.9974 24.165 20.0601 24.2364 20.1629 24.2669C20.2978 24.3069 20.5007 24.3095 20.8316 24.2869C21.1625 24.2643 21.3619 24.2355 21.4908 24.1772C21.5892 24.1336 21.6414 24.0544 21.5996 23.909C21.5169 23.6208 20.984 22.3016 20.8316 22.0108C20.8011 21.9524 20.7637 21.8767 20.6705 21.8836H20.6679Z" fill="#4A4A4A"/>
<path d="M21.4636 21.2444C21.4209 21.3271 21.4749 21.3916 21.5167 21.4429C21.7213 21.6989 22.7166 22.7151 22.9482 22.9067C23.0649 23.0033 23.1581 22.9868 23.2373 22.9145C23.3418 22.8196 23.4498 22.648 23.6021 22.3537C23.7545 22.0594 23.8338 21.8731 23.8512 21.7338C23.8651 21.6275 23.8242 21.5413 23.677 21.5013C23.3871 21.422 21.9834 21.1913 21.656 21.1713C21.5898 21.1669 21.5063 21.1591 21.4627 21.2427L21.4636 21.2444Z" fill="#4A4A4A"/>
<path d="M10.0944 11.1595C10.0779 11.0672 9.99518 11.0498 9.93161 11.0341C9.61292 10.9557 8.20405 10.7572 7.90364 10.7459C7.753 10.7407 7.68857 10.8112 7.66941 10.92C7.64416 11.0585 7.66419 11.2605 7.72253 11.5862C7.78087 11.9118 7.83137 12.1086 7.90277 12.2305C7.95763 12.3228 8.04209 12.3663 8.18141 12.3097C8.46005 12.1957 9.71306 11.5261 9.98473 11.3397C10.0396 11.3023 10.111 11.2579 10.0944 11.1656V11.1595Z" fill="#4A4A4A"/>
<path d="M16.0816 29.4113C16.362 29.4113 16.5893 29.184 16.5893 28.9036C16.5893 28.6233 16.362 28.396 16.0816 28.396C15.8013 28.396 15.574 28.6233 15.574 28.9036C15.574 29.184 15.8013 29.4113 16.0816 29.4113Z" fill="#4A4A4A"/>
<path d="M16.0816 3.60392C16.362 3.60392 16.5893 3.37663 16.5893 3.09627C16.5893 2.8159 16.362 2.58862 16.0816 2.58862C15.8013 2.58862 15.574 2.8159 15.574 3.09627C15.574 3.37663 15.8013 3.60392 16.0816 3.60392Z" fill="#4A4A4A"/>
<path d="M19.4217 28.9716C19.7021 28.9716 19.9294 28.7443 19.9294 28.4639C19.9294 28.1836 19.7021 27.9563 19.4217 27.9563C19.1413 27.9563 18.9141 28.1836 18.9141 28.4639C18.9141 28.7443 19.1413 28.9716 19.4217 28.9716Z" fill="#4A4A4A"/>
<path d="M12.7423 4.04374C13.0226 4.04374 13.2499 3.81646 13.2499 3.53609C13.2499 3.25572 13.0226 3.02844 12.7423 3.02844C12.4619 3.02844 12.2346 3.25572 12.2346 3.53609C12.2346 3.81646 12.4619 4.04374 12.7423 4.04374Z" fill="#4A4A4A"/>
<path d="M22.5338 27.6828C22.8141 27.6828 23.0414 27.4555 23.0414 27.1751C23.0414 26.8948 22.8141 26.6675 22.5338 26.6675C22.2534 26.6675 22.0261 26.8948 22.0261 27.1751C22.0261 27.4555 22.2534 27.6828 22.5338 27.6828Z" fill="#4A4A4A"/>
<path d="M9.62996 5.33243C9.91033 5.33243 10.1376 5.10515 10.1376 4.82479C10.1376 4.54442 9.91033 4.31714 9.62996 4.31714C9.3496 4.31714 9.12231 4.54442 9.12231 4.82479C9.12231 5.10515 9.3496 5.33243 9.62996 5.33243Z" fill="#4A4A4A"/>
<path d="M25.2061 25.6322C25.4865 25.6322 25.7138 25.405 25.7138 25.1246C25.7138 24.8442 25.4865 24.6169 25.2061 24.6169C24.9258 24.6169 24.6985 24.8442 24.6985 25.1246C24.6985 25.405 24.9258 25.6322 25.2061 25.6322Z" fill="#4A4A4A"/>
<path d="M6.95687 7.38297C7.23723 7.38297 7.46451 7.15569 7.46451 6.87532C7.46451 6.59496 7.23723 6.36768 6.95687 6.36768C6.6765 6.36768 6.44922 6.59496 6.44922 6.87532C6.44922 7.15569 6.6765 7.38297 6.95687 7.38297Z" fill="#4A4A4A"/>
<path d="M28.5455 19.847C28.8259 19.847 29.0531 19.6197 29.0531 19.3393C29.0531 19.0589 28.8259 18.8317 28.5455 18.8317C28.2651 18.8317 28.0378 19.0589 28.0378 19.3393C28.0378 19.6197 28.2651 19.847 28.5455 19.847Z" fill="#4A4A4A"/>
<path d="M27.2567 22.9599C27.537 22.9599 27.7643 22.7326 27.7643 22.4522C27.7643 22.1719 27.537 21.9446 27.2567 21.9446C26.9763 21.9446 26.749 22.1719 26.749 22.4522C26.749 22.7326 26.9763 22.9599 27.2567 22.9599Z" fill="#4A4A4A"/>
<path d="M4.90633 10.0555C5.18669 10.0555 5.41397 9.82817 5.41397 9.54781C5.41397 9.26744 5.18669 9.04016 4.90633 9.04016C4.62596 9.04016 4.39868 9.26744 4.39868 9.54781C4.39868 9.82817 4.62596 10.0555 4.90633 10.0555Z" fill="#4A4A4A"/>
<path d="M3.61751 13.1682C3.89787 13.1682 4.12515 12.941 4.12515 12.6606C4.12515 12.3802 3.89787 12.153 3.61751 12.153C3.33714 12.153 3.10986 12.3802 3.10986 12.6606C3.10986 12.941 3.33714 13.1682 3.61751 13.1682Z" fill="#4A4A4A"/>
<path d="M28.9849 16.5076C29.2653 16.5076 29.4926 16.2803 29.4926 16C29.4926 15.7196 29.2653 15.4923 28.9849 15.4923C28.7046 15.4923 28.4773 15.7196 28.4773 16C28.4773 16.2803 28.7046 16.5076 28.9849 16.5076Z" fill="#4A4A4A"/>
<path d="M3.17806 16.5076C3.45842 16.5076 3.6857 16.2803 3.6857 16C3.6857 15.7196 3.45842 15.4923 3.17806 15.4923C2.89769 15.4923 2.67041 15.7196 2.67041 16C2.67041 16.2803 2.89769 16.5076 3.17806 16.5076Z" fill="#4A4A4A"/>
<path d="M28.5455 13.1682C28.8259 13.1682 29.0531 12.941 29.0531 12.6606C29.0531 12.3802 28.8259 12.153 28.5455 12.153C28.2651 12.153 28.0378 12.3802 28.0378 12.6606C28.0378 12.941 28.2651 13.1682 28.5455 13.1682Z" fill="#4A4A4A"/>
<path d="M3.61751 19.847C3.89787 19.847 4.12515 19.6197 4.12515 19.3393C4.12515 19.0589 3.89787 18.8317 3.61751 18.8317C3.33714 18.8317 3.10986 19.0589 3.10986 19.3393C3.10986 19.6197 3.33714 19.847 3.61751 19.847Z" fill="#4A4A4A"/>
<path d="M27.2567 10.0555C27.537 10.0555 27.7643 9.82817 27.7643 9.54781C27.7643 9.26744 27.537 9.04016 27.2567 9.04016C26.9763 9.04016 26.749 9.26744 26.749 9.54781C26.749 9.82817 26.9763 10.0555 27.2567 10.0555Z" fill="#4A4A4A"/>
<path d="M4.90633 22.9599C5.18669 22.9599 5.41397 22.7326 5.41397 22.4522C5.41397 22.1719 5.18669 21.9446 4.90633 21.9446C4.62596 21.9446 4.39868 22.1719 4.39868 22.4522C4.39868 22.7326 4.62596 22.9599 4.90633 22.9599Z" fill="#4A4A4A"/>
<path d="M25.2061 7.38297C25.4865 7.38297 25.7138 7.15569 25.7138 6.87532C25.7138 6.59496 25.4865 6.36768 25.2061 6.36768C24.9258 6.36768 24.6985 6.59496 24.6985 6.87532C24.6985 7.15569 24.9258 7.38297 25.2061 7.38297Z" fill="#4A4A4A"/>
<path d="M6.95687 25.6322C7.23723 25.6322 7.46451 25.405 7.46451 25.1246C7.46451 24.8442 7.23723 24.6169 6.95687 24.6169C6.6765 24.6169 6.44922 24.8442 6.44922 25.1246C6.44922 25.405 6.6765 25.6322 6.95687 25.6322Z" fill="#4A4A4A"/>
<path d="M22.5338 5.33243C22.8141 5.33243 23.0414 5.10515 23.0414 4.82479C23.0414 4.54442 22.8141 4.31714 22.5338 4.31714C22.2534 4.31714 22.0261 4.54442 22.0261 4.82479C22.0261 5.10515 22.2534 5.33243 22.5338 5.33243Z" fill="#4A4A4A"/>
<path d="M9.62996 27.6828C9.91033 27.6828 10.1376 27.4555 10.1376 27.1751C10.1376 26.8948 9.91033 26.6675 9.62996 26.6675C9.3496 26.6675 9.12231 26.8948 9.12231 27.1751C9.12231 27.4555 9.3496 27.6828 9.62996 27.6828Z" fill="#4A4A4A"/>
<path d="M19.4217 4.04374C19.7021 4.04374 19.9294 3.81646 19.9294 3.53609C19.9294 3.25572 19.7021 3.02844 19.4217 3.02844C19.1413 3.02844 18.9141 3.25572 18.9141 3.53609C18.9141 3.81646 19.1413 4.04374 19.4217 4.04374Z" fill="#4A4A4A"/>
<path d="M12.7423 28.9716C13.0226 28.9716 13.2499 28.7443 13.2499 28.4639C13.2499 28.1836 13.0226 27.9563 12.7423 27.9563C12.4619 27.9563 12.2346 28.1836 12.2346 28.4639C12.2346 28.7443 12.4619 28.9716 12.7423 28.9716Z" fill="#4A4A4A"/>
</svg>

<svg xmlns="http://www.w3.org/2000/svg" width="33" height="32" fill="none">
  <path fill="#4A4A4A" d="M16.081 32c-8.822 0-16-7.178-16-16s7.178-16 16-16c8.823 0 16 7.178 16 16s-7.177 16-16 16Zm0-30.645C8.006 1.355 1.436 7.925 1.436 16s6.57 14.645 14.645 14.645c8.076 0 14.646-6.57 14.646-14.645S24.157 1.355 16.081 1.355Z"/>
  <path fill="#4A4A4A" d="M15.024 13.077a.455.455 0 0 1-.301-.796c1.285-1.132 1.853-2.067 1.954-2.243.378-.658.985-.999 1.622-.912a.455.455 0 0 1-.122.902c-.372-.05-.621.307-.71.464-.114.197-.75 1.244-2.142 2.472a.457.457 0 0 1-.301.113Zm-7.66 7.713a.455.455 0 0 1-.291-.805 12.716 12.716 0 0 1 1.674-1.12.455.455 0 0 1 .407.815c-.524.297-1.025.633-1.499 1.004a.45.45 0 0 1-.29.105Z"/>
  <path fill="#4A4A4A" d="M18.804 16.473c.18.169.39.096.584-.087 1.318-1.257 2.715-3.23 3.18-4.254.1-.218.301-.34.517-.254.253.102.25.539.02 1.012-.61 1.254-1.454 2.635-3.122 4.363a.349.349 0 0 0 .007.514c.148.133.386.124.61-.103.866-.884 1.45-1.567 1.951-2.277.128-.186.283-.261.436-.227.219.043.254.254.187.507-.11.41-1.26 1.916-1.716 2.427-1.236 1.38-2.473 2.135-4.853 3.372-.83.436-1.453.845-1.829 1.48-.342.579-.445.768-.48.841a.578.578 0 0 0 .254.77.558.558 0 0 0 .76-.292c0-.007-.018.01.43-.747.335-.54.823-.97 1.401-1.236 2.38-1.085 3.356-1.944 4.737-3.325.63-.63 1.501-1.981 1.742-2.38.665-1.12.316-2.08-.285-2.244a.076.076 0 0 1-.048-.113c.465-.797.677-1.347.765-1.774.118-.58-.047-1.283-.843-1.455a.078.078 0 0 1-.047-.035.077.077 0 0 1-.008-.06c.05-.183.099-.415.133-.567.167-.753-.31-1.435-.881-1.558a1.326 1.326 0 0 0-1.073.224.106.106 0 0 1-.138-.018.83.83 0 0 0-.594-.277c-.5-.008-.99.145-1.348.911-.257.548-.64 1.284-1.76 2.525-1.038 1.152-2.484 2.276-3.377 2.862-.156.102-.376.078-.348-.132.042-.334.4-2.576.46-3.237.1-1.074-.477-1.568-1.125-1.655-.533-.072-1.342.081-1.785 1.295-.262.711-.801 1.88-1.26 3.763-.323 1.324-.376 2.868-.081 4.642a.449.449 0 0 1-.059.31c-.353.581-.87 1.347-1.16 2.014a.573.573 0 0 0 .238.73.562.562 0 0 0 .776-.252c.174-.363.522-1.045.663-1.325.24-.492.4-.817.465-1.021.059-.186.094-.402-.013-.893-.181-.827-.245-2.38.092-3.75a38.662 38.662 0 0 1 1.34-4.179c.137-.335.33-.44.523-.422.194.017.56.11.455.793-.188 1.227-.455 2.787-.543 3.31-.042.256-.092.857.383 1.131.37.214.777.095 1.227-.205 1.014-.676 2.76-2.053 3.857-3.285 1.151-1.293 1.518-2.063 1.814-2.76.135-.317.481-.315.604-.279.123.036.27.201.166.551-.255.85-1.306 2.797-3.331 4.623-.23.207-.197.452-.08.58.116.128.323.205.559 0 1.82-1.552 2.858-3.406 3.325-4.398.156-.33.289-.67.399-1.019.1-.288.321-.39.476-.359.221.047.368.275.297.648a6.592 6.592 0 0 1-.495 1.383c-.584 1.238-1.816 2.895-3.145 4.318a.372.372 0 0 0-.006.555Zm-8.227-6.167c.07-.062.042-.14.022-.204-.097-.313-.655-1.62-.802-1.884-.074-.132-.167-.15-.267-.112-.131.05-.294.174-.543.39-.25.216-.39.364-.457.487-.052.095-.046.19.076.28.241.18 1.466.903 1.763 1.045.06.028.135.065.206 0l.002-.002Zm10.091 11.578c-.093.006-.12.087-.142.148-.112.308-.464 1.686-.507 1.984-.022.149.041.22.144.25.135.04.338.044.669.02.33-.022.53-.05.659-.109.098-.043.15-.123.109-.268-.083-.288-.616-1.607-.768-1.898-.03-.059-.068-.134-.162-.127h-.002Zm.796-.64c-.043.083.01.148.053.199.204.256 1.2 1.272 1.431 1.464.117.096.21.08.29.008.104-.095.212-.267.364-.561.152-.295.232-.48.25-.62.013-.107-.028-.193-.175-.233-.29-.079-1.694-.31-2.021-.33-.066-.004-.15-.012-.193.072v.001ZM10.094 11.16c-.016-.093-.099-.11-.162-.126-.32-.078-1.728-.277-2.028-.288-.151-.005-.215.065-.235.174-.025.139-.005.34.054.666.058.326.108.523.18.644.055.093.14.136.278.08.28-.114 1.532-.784 1.804-.97.055-.038.126-.082.11-.174v-.007Zm5.988 18.251a.508.508 0 1 0 0-1.015.508.508 0 0 0 0 1.015Zm0-25.807a.508.508 0 1 0 0-1.015.508.508 0 0 0 0 1.015Zm3.34 25.368a.508.508 0 1 0 0-1.016.508.508 0 0 0 0 1.016Zm-6.68-24.928a.508.508 0 1 0 0-1.016.508.508 0 0 0 0 1.016Zm9.792 23.639a.508.508 0 1 0 0-1.016.508.508 0 0 0 0 1.016ZM9.63 5.332a.508.508 0 1 0 0-1.015.508.508 0 0 0 0 1.015Zm15.576 20.3a.508.508 0 1 0 0-1.015.508.508 0 0 0 0 1.015ZM6.957 7.383a.508.508 0 1 0 0-1.015.508.508 0 0 0 0 1.015Zm21.589 12.464a.508.508 0 1 0 0-1.015.508.508 0 0 0 0 1.015Zm-1.289 3.113a.508.508 0 1 0 0-1.015.508.508 0 0 0 0 1.015ZM4.906 10.056a.508.508 0 1 0 0-1.016.508.508 0 0 0 0 1.016Zm-1.288 3.112a.508.508 0 1 0 0-1.015.508.508 0 0 0 0 1.015Zm25.367 3.34a.508.508 0 1 0 0-1.016.508.508 0 0 0 0 1.016Zm-25.807 0a.508.508 0 1 0 0-1.016.508.508 0 0 0 0 1.016Zm25.368-3.34a.508.508 0 1 0 0-1.015.508.508 0 0 0 0 1.015ZM3.618 19.847a.508.508 0 1 0 0-1.015.508.508 0 0 0 0 1.015Zm23.639-9.791a.508.508 0 1 0 0-1.016.508.508 0 0 0 0 1.016ZM4.906 22.96a.508.508 0 1 0 0-1.015.508.508 0 0 0 0 1.015Zm20.3-15.577a.508.508 0 1 0 0-1.015.508.508 0 0 0 0 1.015ZM6.957 25.632a.508.508 0 1 0 0-1.015.508.508 0 0 0 0 1.015Zm15.577-20.3a.508.508 0 1 0 0-1.015.508.508 0 0 0 0 1.015ZM9.63 27.683a.508.508 0 1 0 0-1.016.508.508 0 0 0 0 1.016Zm9.792-23.639a.508.508 0 1 0 0-1.016.508.508 0 0 0 0 1.016Zm-6.68 24.928a.508.508 0 1 0 0-1.016.508.508 0 0 0 0 1.016Z"/>
</svg>
